X: 4343
M: 2/4
L: 1/16
K: A
EE |\
E2c2B2A2 | A2E2E2z2 | E2B2E2B2 | E2Be e2E2 |\
E2c2B2A2 | A2E2E2z2 | B2E2B2E2 |[1 e2Bc A2 :|[2 e2Bc A2z2 H|]
|:\


